img/contacts/user.svg

<svg viewBox="0 0 26 25" fill="none" xmlns="http://www.w3.org/2000/svg">
<path d="M13.0222 3.3C10.6179 3.3 8.71454 5.2 8.71454 7.6C8.71454 10 10.6179 11.9 13.0222 11.9C15.4264 11.9 17.3298 10 17.3298 7.6C17.3298 5.2 15.3262 3.3 13.0222 3.3ZM16.2278 7.5C16.2278 9.3 14.8254 10.6 13.0222 10.7C11.219 10.7 9.81649 9.3 9.81649 7.5C9.81649 5.7 11.3192 4.4 13.0222 4.4C14.8254 4.4 16.2278 5.8 16.2278 7.5Z" fill="#8E81AC"/>
<path d="M25.4442 11.3C24.8431 4.9 19.5337 0 13.0222 0C6.10993 0 0.5 5.6 0.5 12.5C0.5 19.4 6.10993 25 13.0222 25C13.4229 25 13.8236 25 14.1241 24.9C14.4247 24.8 14.8254 24.8 15.1259 24.7H15.2261C21.7376 23.5 26.0452 17.8 25.4442 11.3ZM16.9291 23.2H16.8289C16.5284 23.3 16.2278 23.4 15.9273 23.5H15.8271C15.5266 23.6 15.2261 23.7 14.9255 23.7V23.8L15.0257 23.7C14.7252 23.8 14.3245 23.8 14.1241 23.8H14.0239C13.3227 23.9 12.6215 23.9 12.0204 23.8C11.7199 23.8 11.4193 23.7 11.1188 23.7V23.8V23.6C10.8183 23.5 10.5177 23.5 10.2172 23.4H10.117C9.81649 23.3 9.61614 23.2 9.21543 23.1L9.11525 23C8.81472 22.9 8.61437 22.8 8.31383 22.7L8.21366 22.6C8.0133 22.6 7.71277 22.5 7.41224 22.3L7.31206 22.2C7.11171 22 6.81117 21.9 6.61082 21.8L6.51064 21.7C6.31029 21.5 6.10993 21.4 5.8094 21.2V17.8C5.8094 15.4 7.81295 13.4 10.2172 13.4H15.9273C18.3316 13.4 20.3351 15.4 20.3351 17.8V21.2C20.1348 21.4 19.9344 21.6 19.6339 21.7L19.5337 21.8C19.3333 22 19.0328 22.1 18.7323 22.3L18.6321 22.4C18.3316 22.6 18.1312 22.7 17.8307 22.8C17.7305 22.8 17.7305 22.8 17.7305 22.9C17.43 23 17.2296 23.1 16.9291 23.2ZM15.9273 12.3H10.117C7.11171 12.3 4.60727 14.8 4.60727 17.8V20.2C0.5 15.7 0.600177 8.7 5.00798 4.4C9.51596 0 16.6286 0 21.0364 4.4C25.344 8.7 25.5443 15.7 21.3369 20.2V17.8C21.4371 14.8 18.9326 12.3 15.9273 12.3Z" fill="#8E81AC"/>
</svg>

<svg width="26" height="25" fill="none" xmlns="http://www.w3.org/2000/svg"><path d="M13.022 3.3a4.272 4.272 0 00-4.307 4.3c0 2.4 1.903 4.3 4.307 4.3 2.404 0 4.308-1.9 4.308-4.3s-2.004-4.3-4.308-4.3zm3.206 4.2c0 1.8-1.403 3.1-3.206 3.2-1.803 0-3.206-1.4-3.206-3.2 0-1.8 1.503-3.1 3.206-3.1 1.803 0 3.206 1.4 3.206 3.1z" fill="#8E81AC"/><path d="M25.444 11.3C24.844 4.9 19.534 0 13.022 0 6.11 0 .5 5.6.5 12.5S6.11 25 13.022 25c.4 0 .802 0 1.102-.1.3-.1.701-.1 1.002-.2h.1c6.512-1.2 10.82-6.9 10.218-13.4zM16.93 23.2h-.1l-.902.3h-.1c-.3.1-.6.2-.902.2v.1l.1-.1c-.3.1-.7.1-.9.1h-.101c-.701.1-1.402.1-2.004 0-.3 0-.6-.1-.901-.1v.1-.2c-.3-.1-.601-.1-.902-.2h-.1c-.3-.1-.5-.2-.902-.3l-.1-.1c-.3-.1-.5-.2-.801-.3l-.1-.1c-.2 0-.501-.1-.802-.3l-.1-.1c-.2-.2-.5-.3-.701-.4l-.1-.1c-.2-.2-.401-.3-.702-.5v-3.4c0-2.4 2.004-4.4 4.408-4.4h5.71c2.405 0 4.408 2 4.408 4.4v3.4c-.2.2-.4.4-.701.5l-.1.1c-.2.2-.501.3-.802.5l-.1.1c-.3.2-.5.3-.801.4-.1 0-.1 0-.1.1-.301.1-.501.2-.802.3zm-1.002-10.9h-5.81c-3.005 0-5.51 2.5-5.51 5.5v2.4C.5 15.7.6 8.7 5.008 4.4 9.516 0 16.628 0 21.036 4.4c4.308 4.3 4.508 11.3.3 15.8v-2.4c.101-3-2.403-5.5-5.409-5.5z" fill="#8E81AC"/></svg>
